svgs/sharp-regular/square-envelope.svg

<svg xmlns="http://www.w3.org/2000/svg" viewBox="0 0 448 512"><!--! Font Awesome Pro 6.6.0 by @fontawesome - https://fontawesome.com License - https://fontawesome.com/license (Commercial License) Copyright 2024 Fonticons, Inc. --><path d="M48 80l0 352 352 0 0-352L48 80zM0 32l48 0 352 0 48 0 0 48 0 352 0 48-48 0L48 480 0 480l0-48L0 80 0 32zM96 160l256 0 0 28.2L224 255.4 96 188.2 96 160zM231.4 287.6L352 224.3 352 352 96 352l0-127.7 120.6 63.3 7.4 3.9 7.4-3.9z"/></svg>

<svg xmlns="http://www.w3.org/2000/svg" viewBox="0 0 448 512"><!--! Font Awesome Pro 6.4.2 by @fontawesome - https://fontawesome.com License - https://fontawesome.com/license (Commercial License) Copyright 2023 Fonticons, Inc. --><path d="M48 80V432H400V80H48zM0 32H48 400h48V80 432v48H400 48 0V432 80 32zM96 160H352v28.2L224 255.4 96 188.2V160zM231.4 287.6L352 224.3V352H96V224.3l120.6 63.3 7.4 3.9 7.4-3.9z"/></svg>
